src/assets/voice_message_icons/play-message.svg

<svg fill="none" height="24" viewBox="0 0 24 24" width="24" xmlns="http://www.w3.org/2000/svg"><path clip-rule="evenodd" d="m23 12c0 6.0751-4.9249 11-11 11-6.07513 0-11-4.9249-11-11 0-6.07513 4.92487-11 11-11 6.0751 0 11 4.92487 11 11zm1 0c0 6.6274-5.3726 12-12 12-6.62742 0-12-5.3726-12-12 0-6.62742 5.37258-12 12-12 6.6274 0 12 5.37258 12 12zm-14.85193-4.37253c-.33333-.19048-.74807.05021-.74807.43412v7.87681c0 .3839.41474.6246.74807.4341l6.89223-3.9384c.3359-.1919.3359-.6763 0-.8682z" fill="#abb2bd" fill-rule="evenodd"/></svg>

<svg width="24" height="24" viewBox="0 0 24 24" fill="none" xmlns="http://www.w3.org/2000/svg">
<g id="Union">
<path id="Union_2" fill-rule="evenodd" clip-rule="evenodd" d="M23 12C23 18.0751 18.0751 23 12 23C5.92487 23 1 18.0751 1 12C1 5.92487 5.92487 1 12 1C18.0751 1 23 5.92487 23 12ZM24 12C24 18.6274 18.6274 24 12 24C5.37258 24 0 18.6274 0 12C0 5.37258 5.37258 0 12 0C18.6274 0 24 5.37258 24 12ZM9.14807 7.62747C8.81474 7.43699 8.4 7.67768 8.4 8.06159V15.9384C8.4 16.3223 8.81474 16.563 9.14807 16.3725L16.0403 12.4341C16.3762 12.2422 16.3762 11.7578 16.0403 11.5659L9.14807 7.62747Z" fill="#ABB2BD"/>
</g>
</svg>
